X: 7
T: THE DONEGAL JIG - Tune 2
R: jig
Z: 2006 John Chambers <jc@trillian.mit.edu>
B: "Rinnci na h-\'Eireann" Elizabeth Burchenal, ed. G.Schirmer (1925) p.126
M: 6/8
L: 1/8
K: G
c \
| "G"B3 BAG | "G"dcB BAG | "D7"A3 AFD | "D7"AGF ABc \
| "G"B3 BAG | "G"Bcd "C"efg | "D7"edc BcA | "G"BGG G2 :|
|: B \
| "D7"A3 AFD | "D7"ABc AFD | "G"B3 Bcd | "C"edc "G"BAG \
| "D7"A3 ABc | "D7"AFD "G"Bcd | "C"edc "D7"BcA | "G"BGG G2 :|
|: d \
| "G"g3 gdB | "G"gdB BAG | "D7"A3 dAF | "D7"DFA cBA \
| "G"g3 gdB | "G"gfe dcB | "D7"edc BcA | "G"BGG G2 :|
|: A \
| "D7"D3 DFA | "D7" cBA AGF | "G"G3 Bcd | "C"edc "G"BAG \
| "D7"D3 DFA | "G"Bcd "C"efg | "Am"age "D7"dcA | "G"BGG G2 :|

%%sep 2 1 500

